svgs/hypatia.svg

<svg xmlns="http://www.w3.org/2000/svg" viewBox="0 0 192 192"><path d="M89.014 174.449c-20.56-7.444-38.462-23.744-48.709-44.351-8.481-17.055-9.532-22.94-10.15-56.874l-.51-28 32.728-14.612C80.373 22.575 95.505 16 96 16c.495 0 15.627 6.575 33.627 14.612l32.728 14.612-.51 28c-.369 20.249-.903 29.676-1.928 34.054-7.205 30.757-27.676 55.482-54.796 66.181-7.95 3.136-9.856 3.253-16.107.99Zm21.871-20.436c17.876-11.243 31.224-31.476 35.286-53.488l.816-4.424H96.024l-.245-31.942-.245-31.943-25.381 11.219-25.381 11.218v41.448H96v65.096l4.89-1.987c2.689-1.092 7.187-3.431 9.995-5.197Z"/></svg>

<svg
    xmlns="http://www.w3.org/2000/svg"
    viewBox="0 0 192 192"
    id="vector">
    <g id="group">
        <path
            id="path_6"
            d="M 89.014 174.449 C 68.454 167.005 50.552 150.705 40.305 130.098 C 31.824 113.043 30.773 107.158 30.155 73.224 L 29.645 45.224 L 62.373 30.612 C 80.373 22.575 95.505 16 96 16 C 96.495 16 111.627 22.575 129.627 30.612 L 162.355 45.224 L 161.845 73.224 C 161.476 93.473 160.942 102.9 159.917 107.278 C 152.712 138.035 132.241 162.76 105.121 173.459 C 97.171 176.595 95.265 176.712 89.014 174.449 Z M 110.885 154.013 C 128.761 142.77 142.109 122.537 146.171 100.525 L 146.987 96.101 L 96.024 96.101 L 95.779 64.159 L 95.534 32.216 L 70.153 43.435 L 44.772 54.653 L 44.772 96.101 L 96 96.101 L 96 161.197 L 100.89 159.21 C 103.579 158.118 108.077 155.779 110.885 154.013 Z"
            fill="#000000"
            stroke-width="12"/>
    </g>
</svg>
